!!!COM: Schubert, Franz
!!!CNT: Deutscher
!!!TXO: Deutsch
!!!LYR: Friedrich von Schiller
!!!OTL: "Sehnsucht"
!!!OPS: Op. 39
!!!ODT: 1819/
!!NB: Vocal melody only encoded.
**kern	**silbe
*clefG4	*
*k[f#c#]	*
*M4/4	*
*MM[ziemlich geschwind]	*
=7	=7
{2b	{Ach,
4r	.
8r	.
8b	aus
=8	=8
4.b	die-
8b	-ses
4ccn	Ta-
8b	|
8a	-les
=9	=9
8g	Gru2n-
8f#	|
4e}	-den,}
8r	.
{4g	{die
8B	der
=10	=10
8.A#	kal-
16c#	-te
4.f#	Ne-
8g	|
8f#	-bel
8e#	|
=11	=11
2f#}	dru2ckt,}
2r	.
=12	=12
{4.f#	{ko2nnt'
8f#	ich
4.g	doch
8g	den
=13	=13
4.g#	Aus-
8g#	-gang
8g#	fin-
8a	|
4a	-den,
=14	=14
4.b	ach,
8b	wie
8b	fu2hlt'
8a	|
8a	ich
8g	|
=15	=15
8g	mich
8f#	|
8f#	be-
8e	|
8e#	-glu2ckt,
8f#}	|}
4r	.
=16	=16
{4.b	{ach,
8cc#	wie
8dd	fu2hlt'
8a	|
8b	ich
8g	|
=17	=17
8f#	mich
8a	|
8g	be-
8e	|
4d}	-glu2ckt!}
4r	.
=21	=21
*k[f#]	*
{4d	{Dort
8.d	er-
16g	|
4g	-blick'
4d	ich
=22	=22
8d	scho2-
8b	|
8a	-ne
8f#	|
4g	Hu2-
4d	-gel,
=23	=23
4d	e-
8.d	-wig
16g	|
4.g	jung
8d	und
=24	=24
8d	e-
8dd	|
8cc#	-wig
8a	|
2g}	gru2n!}
=25	=25
{4.c#	{Ha2tt'
8e	ich
4a	Schwin-
4e	-gen,
=26	=26
4.e	ha2tt'
8a	ich
4cc#	Flu2-
4a	-gel,
=27	=27
4.a	nach
8a	den
4dd	Hu2-
8ccn	-geln
8b	|
=28	=28
8b	zo2g'
8a	|
8g	ich
8f#	|
4g}	hin,}
4r	.
=29	=29
{4a	{nach
8b	den
8cc	|
8eeq	Hu2-
4dd	|
8cc	-geln
8b	|
=30	=30
8a	zo2g'
8ee	|
8dd	ich
8f#	|
4g}	hin.}
4r	.
=34	=34
*k[b-e-]	*
2.r	.
{8.f	{Har-
16f	-mo-
=35	=35
4.b-	-ni-
8f	-en
4.f	ho2r'
8f	ich
=36	=36
8f	klin-
8g	|
4f}	-gen,}
2r	.
=37	=37
{4dd	{To2-
4cc#	-ne
4dd	su2-
4a	-sser
=38	=38
8cc	Him-
8b-	|
8a	-mels-
8g	|
4f	-ruh,
8d}	|}
8r	.
=39	=39
2r	.
{4.cc	{und
8e-	die
=40	=40
4.d	leich-
8f	-ten
[4b-	Win-
12b-]	|
12f	|
12d	-de
=41	=41
4f	brin-
4e-	-gen
4.cc	mir
8e-	der
=42	=42
4.d	Du2f-
8f	-te
[4b-	Bal-
12b-]	|
12f	|
12d	-sam
=43	=43
4c}	zu.}
2.r	.
=44	=44
{4.a-	{Gold-
8a-	-ne
4a-	Fru2ch-
4A-	-te
=45	=45
4.e-	seh'
8e-	ich
4e-	glu2-
4a-	-hen,
=46	=46
4.a-	win-
8a-	-kend
4a-	zwi-
4A-	-schen
=47	=47
4.e-	dun-
8e-	-kelm
4e-	Laub,
4a-}	|}
=48	=48
4r	.
{8a-	{win-
8f	|
4g	-kend
8a-	zwi-
8f	-schen
=49	=49
8.g	dun-
32a-	|
32g	|
8f	|
8e-	-kelm
2b-}	Laub,}
=50	=50
{4d	{und
4d	die
2d	Blu-
=51	=51
4g	-men,
4r	.
4b-	die
4b-	dort
=52	=52
4.b-	blu2-
8d	|
4e-}	-hen,}
4r	.
=53	=53
{4b-	{wer-
8a-	-den
8g	|
4f	kei-
8g	-nes
8a-	|
=54	=54
4B-	Win-
8c	-ters
8d	|
2e-	Raub,
=55	=55
4b-	wer-
8a-	-den
8g	|
8ee-	kei-
8cc	|
8a-	-nes
8f	|
=56	=56
8b-	Win-
8B-	|
8c	-ters
8d	|
4e-}	Raub.}
4r	.
=59	=59
2.r	.
{8f	{Ach,
8f	wie
=60	=60
4.b-	scho2n
8f	muss
4.f	sich's
8f	er-
=61	=61
8f	-ge-
8g	|
4f}	-hen
2r	.
=62	=62
{4dd	{dort
4cc#	im
4dd	ew'-
4a	-gen
=63	=63
8cc	Son-
8b-	|
8a	-nen-
8g	|
4f	-schein,
8d}	|}
8r	.
=64	=64
2r	.
{4.cc	{und
8e-	die
=65	=65
4.d	Luft
8f	auf
[4b-	je-
12b-]	|
12f	|
12d	-nen
=66	=66
4f	Ho2-
4e-	-hen,
4.cc	o
8e-	wie
=67	=67
4.d	la-
8f	-bend
[4b-	muss
12b-]	|
12f	|
12d	sie
=68	=68
2c}	sein!}
2r	.
=73	=73
2.r	.
{8g	{Doch
8g	mir
=74	=74
4.g	wehrt
8g	des
4.g	Stro-
8g	-mes
=75	=75
4b-	To-
4g}	-ben,}
4r	.
{8g	{der
8g	er-
=76	=76
4.g	-grimmt
8g	da-
4.g	-zwi-
8g	-schen
=77	=77
2g}	braust;}
4r	.
{8g	{sei-
8g	-ne
=78	=78
4.a-	Wel-
8a-	-len
4.a-	sind
8a-	ge-
=79	=79
4dd-	-ho-
4a-}	-ben,}
4r	.
{8a-	{dass
8a-	die
=80	=80
4.cc-	See-
8cc-	-le
4b-	mir
4a-	er-
=81	=81
2e-}	-graust.}
2r	.
=83	=83
2.r	.
{8a-	{Ei-
8a-	-nen
=84	=84
4.g	Na-
8g	-chen
4.b-	seh'
8g	ich
=85	=85
4a-	schwan-
4e-}	-ken,}
4r	.
{8a-	{a-
8a-	-ber,
=86	=86
2an	ach!
4.g	der
8en	|
=87	=87
2.a#	Fa2hr-
4en	-mann
=88	=88
2f#}	fehlt.}
2r	.
=90	=90
*k[f#c#g#d#]	*
{4e	{Frisch
4g#	hin-
4.b	-ein
8g#	und
=91	=91
4.cc#	oh-
8d#	-ne
16f#q	Wan-
8e	|
8e}	-ken!}
8r	.
{16e	{sei-
16d#	-ne
=92	=92
8.c#	Se-
16c#	-gel
8.e	sind
16e	be-
4a}	-seelt,}
8r	.
{16f#	{sei-
16e	-ne
=93	=93
8.d#	Se-
16d#	-gel
8.f#	sind
16f#	be-
2b}	-seelt!}
=94	=94
{4g#	{Frisch
4b	hin-
[4ee	-ein
16ee]	|
16b	|
16g#	und
16e	|
=95	=95
4.cc#	oh-
8d#	-ne
8f#	Wan-
8e}	-ken!}
4r	.
=96	=96
{4.B	{Du
8e	musst
4e	glau-
4B	-ben,
=97	=97
8B	du
4e	|
8g#	musst
4g#	wa-
4e	-gen,
=98	=98
8e	denn
4g#	|
8b	die
4.cc#	Go2t-
8e	-ter
=99	=99
8d#	leihn
8f#	|
8b	kein
8a	|
4g#}	Pfand.}
4r	.
=100	=100
{4.a	{Nur
8d	ein
8.e	Wun-
16f#	|
4g#	-der
=101	=101
4.a	kann
8d#	dich
8.e	tra-
16f#	|
4g#	-gen
=102	=102
4.b#	in
8b#	das
8cc#	scho2-
8g#	|
8a	-ne
8f#	|
=103	=103
8e	Wun-
4g#	|
8f#	-der-
2e}	-land.}
=104	=104
{4.B	{Du
8e	musst
4e	glau-
4B	-ben;
=105	=105
8c#	du
4e	|
8g#	musst
4g#	wa-
4e	-gen,
=106	=106
8e	denn
4g#	|
8b	die
4.cc#	Go2t-
8e	-ter
=107	=107
8d#	leihn
8f#	|
8b	kein
8a	|
4g#}	Pfand,}
4r	.
=108	=108
{4.a	{nur
8d	ein
8.e	Wun-
16f#	|
4g#	-der
=109	=109
4.a	kann
8d#	dich
8.e	tra-
16f#	|
4g#	-gen
=110	=110
4.b#	in
8b#	das
8cc#	scho2-
8g#	|
8a	-ne
8f#	|
=111	=111
8e	Wun-
4g#	|
8f#	-der-
2e}	-land,}
=113	=113
{2.b#	{in
4b#	das
=114	=114
8cc#	scho2-
8dd#	|
4.ee	|
8cc#	|
8a	-ne
8f#	|
=115	=115
4g#	Wun-
4.b	|
8a#	|
8an	-der-
8f#	|
=116	=116
4e}	-land.}
2.r	.
*-	*-
